X:714
T:
S:Ur en gammal handskriven dansbok, tillhörande Gotlands fornsal.
O:Gotland
R:långdans
M:2/4
L:1/8
K:C
C2 (CB,)|(CB,) (CD)|E2 (ED)|(ED) (EF)|G2 (AB)|(cd) (ef)|g2 B2|c2 z2:|
(g^f) (ga)|(ge) c2|(g^f) (ga)|(gf) d2|(g^f) (ga)|(ge) c2|(Bd) (GB)|c2 z2:|

